X:20
T:Racing the Tide
M:4/4
L:1/8
R:Reel
C:Gris Sanderson
Q:450
N:There is a road near where I live that you can only get along 
N:at low tide. However, it makes the trip to the pub much 
N:quicker if you can catch it in time! This tune is on the Waulk 
N:album House Music.
K:Dmix
de|:fdcdA2dc|AGFD C2DE|FDAB cefd|ecAB ^cAde|
fdcdA2dc|AGFD CDEG|ADFA GABG|1AFEF D2de:|2AFEF D2z2||
|:=f3e d2dc |A2GA =FCDF|GABd g=fdc|ADDE FAde|
f2fd c2dc|AGFD CDEG|ADFA GABG|AFEFD2de:||
